X:519
T:Cronin's
R:jig
S:Henrik M\"uller
Z:id:hn-jig-519
M:6/8
L:1/8
K:G
BAB dBA | GBA G2d | dcB c2d | ecA ABc |
BAB dBA | GBA GAB | dcB Adc |1 BGF G2A :|2 BGF G3 ||
|: dgf g2a | bga g2e | dcB c2d | ecA A3 |
dgf g2a | bga g2e | dcB Adc |1 BGF G3 :|2 BGF G2A ||

